assets/illustrations/default/ecossystem-1.svg

<svg xmlns="http://www.w3.org/2000/svg" width="1080" height="1081" fill="none"><path fill="#0C4EC0" d="M677.03 531.358c59.353 0 107.468-48.114 107.468-107.467S736.383 316.424 677.03 316.424s-107.467 48.114-107.467 107.467 48.114 107.467 107.467 107.467"/><path fill="url(#a)" d="M534.558 764.876c110.94 0 200.875-89.935 200.875-200.875s-89.935-200.874-200.875-200.874-200.874 89.934-200.874 200.874 89.934 200.875 200.874 200.875"/><path fill="#35DE90" d="M283.933 720.828c49.253 0 89.18-39.927 89.18-89.179s-39.927-89.179-89.18-89.179c-49.252 0-89.179 39.926-89.179 89.179s39.927 89.179 89.179 89.179"/><path fill="#B2DFFD" d="M191.411 697.132c-3.54 0-6.883-.098-10.029-.196-24.581-.983-37.166-5.703-39.624-14.749-3.442-12.683 11.012-25.564 51.521-46.015l3.54 6.981c-33.529 17.01-49.555 29.399-47.49 36.97.491 1.769 4.227 7.767 32.348 8.947 21.041.787 50.341-1.18 87.114-6.096 75.906-10.128 174.917-31.07 278.648-59.093 103.732-28.022 199.793-59.78 270.488-89.277 34.216-14.355 60.567-27.334 78.363-38.641 23.696-15.142 23.992-22.221 23.5-23.991-.492-1.868-5.605-10.914-56.93-8.751-36.084 1.573-86.425 8.259-145.616 19.566l-1.475-7.767c59.584-11.307 110.319-18.091 146.698-19.665 53.98-2.359 62.829 7.178 64.795 14.552 2.458 9.046-6.096 19.468-26.842 32.742-18.091 11.602-44.835 24.777-79.543 39.231-70.99 29.694-167.347 61.55-271.471 89.671-104.026 28.12-203.333 49.161-279.631 59.289-31.562 4.228-57.913 6.292-78.364 6.292"/><path fill="#072F73" d="M806.424 617.489c39.206 0 70.99-31.782 70.99-70.989 0-39.206-31.784-70.989-70.99-70.989s-70.989 31.783-70.989 70.989 31.783 70.989 70.989 70.989"/><mask id="b" width="37" height="20" x="300" y="530" maskUnits="userSpaceOnUse" style="mask-type:luminance"><path fill="#fff" d="M300.648 544.044s10.423 1.966 18.682 5.702l15.24-5.015 1.868-14.256z"/></mask><g mask="url(#b)"><path fill="#B2DFFD" d="m302.712 553.088-2.458-7.473c2.949-.983 8.062-2.752 13.667-4.621 9.93-3.343 21.238-7.177 26.645-8.947l2.458 7.473c-5.309 1.769-16.616 5.506-26.547 8.947-5.703 1.868-10.815 3.539-13.765 4.621"/></g><path fill="#B2DFFD" d="M99.38 749.932c-49.358 0-92.325-6.981-98.618-30.284-4.72-17.698 12.487-39.525 51.325-64.991 37.363-24.482 94.39-51.816 165.085-79.15l2.851 7.374c-70.104 27.137-126.738 54.274-163.61 78.462-34.61 22.713-51.718 42.672-47.982 56.339 2.262 8.357 16.126 24.581 90.163 24.581 18.681 0 41.099-.983 68.138-3.442 101.076-9.144 240.007-36.674 391.13-77.38 152.598-41.099 288.382-87.213 382.379-129.885 127.029-57.617 134.309-87.704 131.459-98.028-4.03-14.847-32.64-23.696-80.528-25.073-51.324-1.475-123.789 5.703-209.428 20.747l-1.377-7.768c86.23-15.142 159.186-22.319 211.002-20.845 53.191 1.475 82.791 11.898 87.901 30.874 3.74 13.864-6.88 30.382-31.66 49.26-23.11 17.6-58.207 37.068-104.222 58.011-94.292 42.77-230.568 89.08-383.559 130.278-151.615 40.804-290.939 68.433-392.507 77.577-22.025 1.868-45.622 3.343-67.942 3.343"/><defs><linearGradient id="a" x1="333.741" x2="735.414" y1="563.971" y2="563.971" gradientUnits="userSpaceOnUse"><stop stop-color="#0096FA"/><stop offset=".276" stop-color="#0390F9"/><stop offset=".629" stop-color="#0C80F5"/><stop offset="1" stop-color="#1968F0"/></linearGradient></defs></svg>

<svg width="1080" height="1081" viewBox="0 0 1080 1081" fill="none" xmlns="http://www.w3.org/2000/svg">
<path d="M677.03 531.358C736.383 531.358 784.498 483.244 784.498 423.891C784.498 364.538 736.383 316.424 677.03 316.424C617.677 316.424 569.563 364.538 569.563 423.891C569.563 483.244 617.677 531.358 677.03 531.358Z" fill="#0C4EC0"/>
<path d="M534.558 764.876C645.498 764.876 735.433 674.941 735.433 564.001C735.433 453.061 645.498 363.127 534.558 363.127C423.618 363.127 333.684 453.061 333.684 564.001C333.684 674.941 423.618 764.876 534.558 764.876Z" fill="url(#paint0_linear_18735_3350)"/>
<path d="M283.933 720.828C333.186 720.828 373.113 680.901 373.113 631.649C373.113 582.396 333.186 542.47 283.933 542.47C234.681 542.47 194.754 582.396 194.754 631.649C194.754 680.901 234.681 720.828 283.933 720.828Z" fill="#35DE90"/>
<path d="M191.411 697.132C187.871 697.132 184.528 697.034 181.382 696.936C156.801 695.953 144.216 691.233 141.758 682.187C138.316 669.504 152.77 656.623 193.279 636.172L196.819 643.153C163.29 660.163 147.264 672.552 149.329 680.123C149.82 681.892 153.556 687.89 181.677 689.07C202.718 689.857 232.018 687.89 268.791 682.974C344.697 672.846 443.708 651.904 547.439 623.881C651.171 595.859 747.233 564.101 817.927 534.604C852.143 520.249 878.494 507.27 896.29 495.963C919.986 480.821 920.282 473.742 919.79 471.972C919.298 470.104 914.185 461.058 862.86 463.221C826.776 464.794 776.435 471.48 717.244 482.787L715.769 475.02C775.353 463.713 826.088 456.929 862.467 455.355C916.447 452.996 925.296 462.533 927.262 469.907C929.72 478.953 921.166 489.375 900.42 502.649C882.329 514.251 855.585 527.426 820.877 541.88C749.887 571.574 653.53 603.43 549.406 631.551C445.38 659.671 346.073 680.712 269.775 690.84C238.213 695.068 211.862 697.132 191.411 697.132Z" fill="#B2DFFD"/>
<path d="M806.424 617.489C845.63 617.489 877.414 585.707 877.414 546.5C877.414 507.294 845.63 475.511 806.424 475.511C767.218 475.511 735.435 507.294 735.435 546.5C735.435 585.707 767.218 617.489 806.424 617.489Z" fill="#072F73"/>
<mask id="mask0_18735_3350" style="mask-type:luminance" maskUnits="userSpaceOnUse" x="300" y="530" width="37" height="20">
<path d="M300.648 544.044C300.648 544.044 311.071 546.01 319.33 549.746L334.57 544.731L336.438 530.475L300.648 544.044Z" fill="white"/>
</mask>
<g mask="url(#mask0_18735_3350)">
<path d="M302.712 553.088L300.254 545.615C303.203 544.632 308.316 542.863 313.921 540.994C323.851 537.651 335.159 533.817 340.566 532.047L343.024 539.52C337.715 541.289 326.408 545.026 316.477 548.467C310.774 550.335 305.662 552.006 302.712 553.088Z" fill="#B2DFFD"/>
</g>
<path d="M99.3803 749.932C50.022 749.932 7.05495 742.951 0.762257 719.648C-3.95726 701.95 13.2495 680.123 52.0872 654.657C89.45 630.175 146.477 602.841 217.172 575.507L220.023 582.881C149.919 610.018 93.2846 637.155 56.4133 661.343C21.8035 684.056 4.695 704.015 8.43128 717.682C10.6927 726.039 24.5565 742.263 98.5939 742.263C117.275 742.263 139.693 741.28 166.732 738.821C267.808 729.677 406.739 702.147 557.862 661.441C710.46 620.342 846.244 574.228 940.241 531.556C1067.27 473.939 1074.55 443.852 1071.7 433.528C1067.67 418.681 1039.06 409.832 991.172 408.455C939.848 406.98 867.383 414.158 781.744 429.202L780.367 421.434C866.597 406.292 939.553 399.115 991.369 400.589C1044.56 402.064 1074.16 412.487 1079.27 431.463C1083.01 445.327 1072.39 461.845 1047.61 480.723C1024.5 498.323 989.403 517.791 943.388 538.734C849.096 581.504 712.82 627.814 559.829 669.012C408.214 709.816 268.89 737.445 167.322 746.589C145.297 748.457 121.7 749.932 99.3803 749.932Z" fill="#B2DFFD"/>
<defs>
<linearGradient id="paint0_linear_18735_3350" x1="333.741" y1="563.971" x2="735.414" y2="563.971" gradientUnits="userSpaceOnUse">
<stop stop-color="#0096FA"/>
<stop offset="0.2755" stop-color="#0390F9"/>
<stop offset="0.6288" stop-color="#0C80F5"/>
<stop offset="1" stop-color="#1968F0"/>
</linearGradient>
</defs>
</svg>
